src/assets/icons/phone.svg

<svg xmlns="http://www.w3.org/2000/svg" viewBox="0 0 10 10" width="10" height="10" fill="none"><path fill="currentColor" d="M10 7.89773C10 7.84801 10 7.7983 9.97869 7.74858C9.92898 7.59943 9.58097 7.44318 9.43892 7.37216C9.03409 7.14489 8.62216 6.92472 8.22443 6.69034C8.03977 6.5767 7.8125 6.36364 7.59233 6.36364C7.15909 6.36364 6.52699 7.64915 6.14347 7.64915C5.9517 7.64915 5.70312 7.47159 5.53267 7.37216C4.24006 6.65483 3.34517 5.75994 2.62784 4.46733C2.52841 4.29688 2.35085 4.0483 2.35085 3.85653C2.35085 3.47301 3.63636 2.84091 3.63636 2.40767C3.63636 2.1875 3.4233 1.96023 3.30966 1.77557C3.07528 1.37784 2.85511 0.965909 2.62784 0.56108C2.55682 0.419034 2.40057 0.0710228 2.25142 0.0213069C2.2017 0 2.15199 0 2.10227 0C1.84659 0 1.34943 0.113637 1.11506 0.220171C0.767045 0.369318 0.539773 0.767045 0.362216 1.08665C0.134943 1.50568 0 1.93182 0 2.40767C0 3.06818 0.269886 3.66477 0.490057 4.26847C0.646307 4.7017 0.838068 5.12074 1.07955 5.51136C1.82528 6.71875 3.28125 8.17472 4.48864 8.92045C4.87926 9.16193 5.2983 9.35369 5.73153 9.50994C6.33523 9.73011 6.93182 10 7.59233 10C8.06818 10 8.49432 9.86506 8.91335 9.63778C9.23295 9.46023 9.63068 9.23295 9.77983 8.88494C9.88636 8.65057 10 8.15341 10 7.89773Z"></path></svg>

<svg xmlns="http://www.w3.org/2000/svg" width="10" height="10" fill="none"><path fill="currentColor" d="M10 7.898c0-.05 0-.1-.021-.15-.05-.149-.398-.305-.54-.376-.405-.227-.817-.447-1.215-.682-.184-.113-.412-.326-.632-.326-.433 0-1.065 1.285-1.449 1.285-.191 0-.44-.177-.61-.277C4.24 6.655 3.345 5.76 2.628 4.467c-.1-.17-.277-.419-.277-.61 0-.384 1.285-1.016 1.285-1.45 0-.22-.213-.447-.326-.631-.235-.398-.455-.81-.682-1.215C2.557.42 2.4.071 2.25.021 2.201 0 2.152 0 2.102 0a3.16 3.16 0 0 0-.987.22C.767.37.54.767.362 1.087.135 1.506 0 1.932 0 2.407c0 .661.27 1.258.49 1.861.156.434.348.853.59 1.243.745 1.208 2.201 2.664 3.409 3.41.39.24.81.433 1.243.589.603.22 1.2.49 1.86.49.476 0 .902-.135 1.321-.362.32-.178.718-.405.867-.753a3.16 3.16 0 0 0 .22-.987Z"/></svg>
